X: 135
T:Ranting Roaring Willie. HA.134
T:Rattlin' Roarin' Willie,aka. HA.134
M:9/4
L:1/4
Q:120
S:Henry Atkinson's original MS,Hartburn,N'umberland,1694.
O:England
A:Hartburn,Northumberland
N:Many inconsistencies in the MS, but I have refrained from editing as it
N:is a tune commonly found elsewhere.CGP
H:1/4
Z:vmp.Chris Partington.Jan.2004
K:D
"Unedited"(B/c/)|A2D F2D (FA)B|\
cdc (cG)EG(AB)|A2D F2D (F/A/) |!
(B/c/) (d/c/)(d/c/)(d/c/)"sic barlines"|(d/c/)(B/A/)(G/F/) A2(B/c/)|!
(d/c/)(d/c/)(d/c/) (d/c/)(B/A/) (G/F/) A2B|!
 cdc (c/G/)E GAB|A2F B2A d2(c/B/)| ADF ECE D2||!
D|DA,D DA,D DA,D|EDE CEC (E/F/G)E|!
EA,D DA,D DA,D|FEF CFC F/G/AF|!
EDE CEC (E/F/)GE|A2F B2A d2(c/B/)| ADF ECE D2||!
A|d>ef f>ef d2A|c>de e>de c2A|!
cAB Adc/B/|A/D/F E/C/ED2||!
A|AFD AFD AFD|cGE cGE cGE|AFD AFD|!
dAF dAF dAF|dAF dAF dAF|cGE cGE G>AB|!
A2F B2A dc/B/| ADF FCE D3-|D2|]
